X:1
T:French Suite IV Allemande
T:BWV 815
T:J.S. Bach
%%score { ( 1 4 5 6 ) | ( 2 3 7 ) }
L:1/8
M:4/4
K:Eb
V:1 treble nm="Harp"
V:4 treble 
V:5 treble 
V:6 treble 
V:2 bass 
V:3 bass 
V:7 bass 
V:1
 B,/ | B,/F,/G,/B,/ z/ G,/B,/_D/ C/G,/A,/C/ z/ A,/C/E/ | D/G,/A,/D/ z/ A,/D/F/ F/D/E/G/ B,/D/E/G/ | %3
 G/E/F/A/ C/E/F/A/ D/c/B/D/ E/B/G/E/ | C/B/A/C/ D/A/F/D/ B,/A/G/B,/ C/G/E/C/ | %5
 A,/G/F/A,/ B,/F/D/B,/ G,/B,/D/F/ E/G/B/_d/ | c2- c/c/B/A/ G/F/G/B/ e2- | e/e/d/c/ d2 d>G c2- | %8
 c/c/B/A/ B2- B/E/G/B/ A/c/e/g/ | f2 f2- f/c/d/f/ e2- | e/e/d/B/ G/c=A/ B2 B3/2 B,/ | %11
 B,/F,/G,/B,/ z/ G,/B,/_D/ C/G,/A,/C/ z/ A,/C/E/ | D/G,/A,/D/ z/ A,/D/F/ F/D/E/G/ B,/D/E/G/ | %13
 G/E/F/A/ C/E/F/A/ D/c/B/D/ E/B/G/E/ | C/B/A/C/ D/A/F/D/ B,/A/G/B,/ C/G/E/C/ | %15
 A,/G/F/A,/ B,/F/D/B,/ G,/B,/D/F/ E/G/B/_d/ | c2- c/c/B/A/ G/F/G/B/ e2- | e/e/d/c/ d2 d>G c2- | %18
 c/c/B/A/ B2- B/E/G/B/ A/c/e/g/ | f2 f2- f/c/d/f/ e2- | e/e/d/B/ G/c=A/ B2 B3/2 f/ | %21
 f/c/d/f/ z/ d/f/a/ g/d/e/g/ z/ e/g/b/ | =a/c/e/a/ z/ e/a/c'/ c'/a/b/f/ e/c/d/f/ | %23
 =f>=B d/f/e/d/ e4- | e2- e/e/d/f/ z2 g2- | g/b/_d/c/ B/g/=e/c/ a/f/=d/c/ =B/f/d/B/ | %26
 G/=B/c/e/- e/d/c/B/ c4 | z/ D/E/G/ B/F/G/B/ _d/G/A/c/- c2- | c/=B/c/=e/ g/_B/c/G/ A/=E/F/A/- A2- | %29
 A/B,/F/A/ G/D/E/B,/ A,/C/E/G/ F/B/D/C/ | B,/D/E/G/ C/FD/ E2- E3/2 f/ | %31
 f/c/d/f/ z/ d/f/a/ g/d/e/g/ z/ e/g/b/ | =a/c/e/a/ z/ e/a/c'/ c'/a/b/f/ e/c/d/f/ | %33
 =f>=B d/f/e/d/ e4- | e2- e/e/d/f/ z2 g2- | g/b/_d/c/ B/g/=e/c/ a/f/=d/c/ =B/f/d/B/ | %36
 G/=B/c/e/- e/d/c/B/ c4 | z/ D/E/G/ B/F/G/B/ _d/G/A/c/- c2- | c/=B/c/=e/ g/_B/c/G/ A/=E/F/A/- A2- | %39
 A/B,/F/A/ G/D/E/B,/ A,/C/E/G/ F/B/D/C/ | B,/D/E/G/ C/FD/ !fermata!E2- E3/2 z/ |] %41
V:2
 z/ | z2 E,2 z2 E,2 | z2 F,2 z2 G,2 | z2 A,2- A,2 G,2 | E,2 F,2 D,2 E,2- | E,2 F,2 G,4- | %6
 G,F,-F,B,- B,4 | B,=A,=B,G, CC,E,F, | G,F,G,E, A,G,F,E, | D,F,D,B,, E,D,C,B,, | %10
 =A,,B,,E,F, z2 B,3/2 z/ | z2 E,2 z2 E,2 | z2 F,2 z2 G,2 | z2 A,2- A,2 G,2 | E,2 F,2 D,2 E,2- | %15
 E,2 F,2 G,4- | G,F,-F,B,- B,4 | B,=A,=B,G, CC,E,F, | G,F,G,E, A,G,F,E, | D,F,D,B,, E,D,C,B,, | %20
 =A,,B,,E,F, z2 B,3/2 z/ | B,4 B,4 | B,4 B,4 | =B,4 C4 | A,4 G,4- | G,B,A,G, F,E,D,C, | %26
 F,E,/F,/ G,G,, C,2- C,/G,/E,/C,/ | G,,F,,G,,E,, A,,2- A,,/A,,/G,,/F,,/ | %28
 =E,,D,,E,,C,, F,,2- F,,/G,,/F,,/_E,,/ | D,,B,,E,_D,, C,,C,D,A,, | G,,C,A,,B,, E,,2- E,,3/2 z/ | %31
 B,4 B,4 | B,4 B,4 | =B,4 C4 | A,4 G,4- | G,B,A,G, F,E,D,C, | F,E,/F,/ G,G,, C,2- C,/G,/E,/C,/ | %37
 G,,F,,G,,E,, A,,2- A,,/A,,/G,,/F,,/ | =E,,D,,E,,C,, F,,2- F,,/G,,/F,,/_E,,/ | %39
 D,,B,,E,_D,, C,,C,D,A,, | G,,C,A,,B,, !fermata!E,,2- E,,3/2 z/ |] %41
V:3
 x/ | E,,4 E,,4 | F,,4 G,,4 | A,,4 B,,4- | B,,8 | C,2 D,2 E,D,C,B,, | A,,2 B,,2 E,F,G,A, | x8 | %8
 x8 | x8 | z4 B,,7/2 z/ | E,,4 E,,4 | F,,4 G,,4 | A,,4 B,,4- | B,,8 | C,2 D,2 E,D,C,B,, | %16
 A,,2 B,,2 E,F,G,A, | x8 | x8 | x8 | z4 B,,7/2 x/ | x8 | x8 | x8 | x8 | x8 | x8 | x8 | x8 | x8 | %30
 z4 z G,- G,3/2 z/ | x8 | x8 | x8 | x8 | x8 | x8 | x8 | x8 | x8 | z4 z !fermata!G,- G,3/2 x/ |] %41
V:4
 x/ | x8 | x8 | x8 | x8 | x8 | z/ G/A/F/ D2 z2 z/ B/c/A/ | F2- F/A/=B/G/ F/D/E z/ G/A/F/ | %8
 D2- D/F/G/_D/ C2 A2- | A/G/A/c/ f/c/d/A/ G2- G/=A/c/_G/ | F2- FE- E/C/D/F/- F3/2 z/ | x8 | x8 | %13
 x8 | x8 | x8 | z/ G/A/F/ D2 z2 z/ B/c/A/ | F2- F/A/=B/G/ F/D/E z/ G/A/F/ | D2- D/F/G/_D/ C2 A2- | %19
 A/G/A/c/ f/c/d/A/ G2- G/=A/c/_G/ | F2- FE- E/C/D/F/- F3/2 x/ | z2 B2 z2 G2 | z2 _G2 z2 F2 | %23
 A/F/G- G2- G/=B/c/G/- G2 | z/ C/E/G/ F2- F2 F/D/=B,/G,/ | =E4 F2 z2 | z2 F2 F/D/E/G/- G2 | %27
 z4 z A- A2 | z4 z F- F2 | z2 G2 A,2 z/ B3/2 | %30
 B,2 B,A, A,/[I:staff +1]F,/G,/B,/- B,3/2[I:staff -1] z/ | z2 B2 z2 G2 | z2 _G2 z2 F2 | %33
 A/F/G- G2- G/=B/c/G/- G2 | z/ C/E/G/ F2- F2 F/D/=B,/G,/ | =E4 F2 z2 | z2 F2 F/D/E/G/- G2 | %37
 z4 z A- A2 | z4 z F- F2 | z2 G2 A,2 z/ B3/2 | %40
 B,2 B,A, A,/[I:staff +1]F,/G,/!fermata!B,/- B,3/2 x/ |] %41
V:5
 x/ | x8 | x8 | x8 | x8 | x8 | x8 | x8 | x8 | x8 | z4 z D- D3/2 z/ | x8 | x8 | x8 | x8 | x8 | x8 | %17
 x8 | x8 | x8 | z4 z D- D3/2 x/ | x8 | x8 | z4 z c- c2 | z4 c/=A/=B/d/- d2 | x8 | z4 z E- E2 | x8 | %28
 x8 | x8 | x8 | x8 | x8 | z4 z c- c2 | z4 c/=A/=B/d/- d2 | x8 | z4 z E- E2 | x8 | x8 | x8 | x8 |] %41
V:6
 x/ | x8 | x8 | x8 | x8 | x8 | x8 | x8 | x8 | x8 | x8 | x8 | x8 | x8 | x8 | x8 | x8 | x8 | x8 | %19
 x8 | x8 | x8 | x8 | z6 E/=B,/C/G,/ | z4 z =B- =B2 | x8 | z6 C2 | z6 E2 | z6 C2 | x8 | x8 | x8 | %32
 x8 | z6 E/=B,/C/G,/ | z4 z =B- =B2 | x8 | z6 C2 | z6 E2 | z6 C2 | x8 | x8 |] %41
V:7
 x/ | x8 | x8 | x8 | x8 | x8 | x8 | x8 | x8 | x8 | x8 | x8 | x8 | x8 | x8 | x8 | x8 | x8 | x8 | %19
 x8 | x8 | x8 | x8 | x8 | x8 | x8 | x8 | x8 | x8 | x8 | z6 E,3/2 z/ | x8 | x8 | x8 | x8 | x8 | x8 | %37
 x8 | x8 | x8 | z6 !fermata!E,3/2 x/ |] %41

